X:106
T:Butterfly
M:9/8
L:1/8
C:Tommy Potts
R:Slip Jig
K:Em
|:"Em"B2 E G2 E "D"F3 | "Em"B2 E G2 E "D"FED| "Em"B2 E G2 E "D"F3 | "C"B
2 c d2 B "D:C"AFA :|
|: "C"B2 d e2 f g3 | "C"B2 c g2 e "D"dBA | "C"B2 d e2 f g2 a | "Bm"b2 a
g2 e "D"dBA:|
|: "G:Em"B3 B2A "DG"G2A | "G:Em"B3 BAB "D"dBA | "G:Em"B3 B2 A "D"G2A | "
C:G"
B2d "C"g2e "D:G"dBA:|
